!!!CDT:
!!!PTL: Il sesto libro de madrigali a sei voci
!!!PPP: Venice
!!!PPR: Angelo Gardano
!!!PDT: 1591
!!!RISM: M 3384
!!!rime: 183
!!!AGN: Madrigal
!!!SCT: Trm0183d
!!!SCA: Trm0183d
!!!voices: 6
!!!COM: Monte, Filippo di
!!!OTL: Di nettare amoroso ebro la mente 
**kern	**text	**kern	**text	**kern	**text
*part3	*part3	*part2	*part2	*part1	*part1
*staff3	*staff3	*staff2	*staff2	*staff1	*staff1
*I"Tenore	*	*I"Quinto	*	*I"Alto	*
*I'T	*	*I'Q	*	*I'A	*
*clefGv2	*	*clefG2	*	*clefG2	*
*	*	*Trd-4c-7	*	*	*
*k[b-]	*	*k[b-e-]	*	*k[b-]	*
*M4/2	*	*M4/2	*	*M4/2	*
=1	=1	=1	=1	=1	=1
!LO:TX:a:t=Prima parte.	!	!	!	!	!
2r	.	0r	.	2r	.
2d	Di	.	.	2a	Di
2.d	net-	.	.	2.b-y	net-
4d	-ta-	.	.	4a	-ta-
=2	=2	=2	=2	=2	=2
4d	-re a-	0r	.	2g	-re a-
4G	-mo-	.	.	.	.
2G	-ro-	.	.	2g	-mo-
1d	-so e-	.	.	2f#X	-ro-
.	.	.	.	[2g	-so e-
=3	=3	=3	=3	=3	=3
2B-y	-bro	0r	.	4g]	.
.	.	.	.	4g	-bro
2B-y	la	.	.	1b-y	la
1f	men-	.	.	.	.
.	.	.	.	2a	men-
=4	=4	=4	=4	=4	=4
2f	-te	0r	.	2b-y	-te
4r	.	.	.	2r	.
4.B-y	Rat-	.	.	.	.
.	.	.	.	2r	.
8c	-to	.	.	.	.
4d	fui,	.	.	.	.
4c	non	.	.	4r	.
4BnX	so	.	.	[4g	Rat-
=5	=5	=5	=5	=5	=5
4c	co-	0r	.	8gL]	.
.	.	.	.	8aJ	-to
4G	-me, in	.	.	4b-y	fui,
1d	chiu-	.	.	4.a	non
.	.	.	.	8g	so
.	.	.	.	4f	co-
.	.	.	.	4a	-me, in
2G	-sa	.	.	4.g	chiu-
.	.	.	.	8f	-sa
=6	=6	=6	=6	=6	=6
2A	chio-	2r	.	2e	chio-
2D	-stra,	4r	.	2d	-stra,
.	.	4e-y	E	.	.
1r	.	4d	due	1r	.
.	.	4.e-y	bel-	.	.
.	.	8d	-le	.	.
.	.	4c	d'a-	.	.
=7	=7	=7	=7	=7	=7
1r	.	4B-y	-mor	0r	.
.	.	4B-y	guer-	.	.
.	.	8B-yL	-rie-	.	.
.	.	8A	.	.	.
.	.	8G	.	.	.
.	.	8FJ	.	.	.
2d	E	4E-y	.	.	.
.	.	4E-y	-re in	.	.
4f	due	2F	gio-	.	.
[4f	bel-	.	.	.	.
=8	=8	=8	=8	=8	=8
8fL]	.	2G	-stra	4r	.
8eJ	-le	.	.	.	.
4d	d'A-	.	.	4a	E
2c	-mor	2r	.	4a	due
.	.	.	.	4.a	bel-
2d	guer-	1r	.	.	.
.	.	.	.	8g	-le
.	.	.	.	4g	d'A-
4e	-rie-	.	.	4a	-mor
4f	-re in	.	.	4d	guer-
=9	=9	=9	=9	=9	=9
8eL	gio-	1r	.	4c#X	-rie-
8AJ	.	.	.	.	.
2d	.	.	.	4d	-re in
.	.	.	.	2e	gio-
4c#i	.	.	.	.	.
4d	-stra	4r	.	4a	-stra
4.d	Vi-	4.BnX	Vi-	4.a	Vi-
8A	-di	8Bni	-di	8a	-di
4d	con	4Bni	con	4a	con
=10	=10	=10	=10	=10	=10
2d	l'ar-	2c	l'ar-	4g	l'ar-
.	.	.	.	4d	-m'on-
2cnXi	-m'on-	2c	-me	2e	-d'e-
1c	-d'e-	4r	.	1f	-egli è
.	.	4d	on-	.	.
.	.	4.d	-d'e-	.	.
.	.	8d	-gli è	.	.
=11	=11	=11	=11	=11	=11
2c	-gli è	2f	sì	4g	sì
.	.	.	.	4g	pos-
4d	sì	2e-y	pos-	8GL	-sen-
.	.	.	.	8A	.
4G	pos-	.	.	8B-y	.
.	.	.	.	8cJ	.
1A	-sen-	1d	-sen-	1d	.
=12	=12	=12	=12	=12	=12
2G	-te;	2enX	-te;	2d	-te;
4r	.	4r	.	2r	.
4.g	Vi-	4.g	Vi-	.	.
.	.	.	.	1r	.
8f#X	-di	8g	-di	.	.
4g	che'n	4e-X	che'n	.	.
4d	dol-	4d	dol-	.	.
4g	-ce ar-	4c	-ce ar-	.	.
=13	=13	=13	=13	=13	=13
4.fnXi	-rin-	2.f	-rin-	0r	.
16eLL	.	.	.	.	.
16dJJ	.	.	.	.	.
4c	.	.	.	.	.
4G	-go al-	4e-y	-go al-	.	.
4d	-te-	4d	-te-	.	.
4e-X	-ra-	4c	-ra-	.	.
2d	-men-	2d	-men-	.	.
=14	=14	=14	=14	=14	=14
2G	-te	2enX	-te	0r	.
4r	.	2r	.	.	.
4c	Fer	.	.	.	.
4.e-X	pria	4r	.	.	.
.	.	4c	Fer	.	.
8d	di	.	.	.	.
4c	lor	4.c	pria	.	.
4BnX	bel-	.	.	.	.
.	.	8c	di	.	.
=15	=15	=15	=15	=15	=15
4c	-tà	4c	lor	0r	.
4c	leg-	4c	bel-	.	.
2g	-gia-	4c	-tà	.	.
.	.	4g	leg-	.	.
2e-X	-dra	4f	-gia-	.	.
.	.	2e-y	-dra	.	.
2f	mo-	.	.	.	.
.	.	4d	mo-	.	.
=16	=16	=16	=16	=16	=16
2B-y	-stra,	2e-y	-stra,	2r	.
2r	.	2r	.	4r	.
.	.	.	.	4d	Poi
1r	.	1r	.	4d	mo-
.	.	.	.	4.f	-ven-
.	.	.	.	8f	-do-
.	.	.	.	4g	-si in-
=17	=17	=17	=17	=17	=17
0r	.	0r	.	2.f	-con-
.	.	.	.	4f	-tra o-
.	.	.	.	4.e-X	-ve
.	.	.	.	8d	s'i-
.	.	.	.	2c	-no-
=18	=18	=18	=18	=18	=18
4r	.	0r	.	4d	-stra
4d	La	.	.	4f	La
4.B-y	boc-	.	.	4.b-y	boc-
8f	-ca	.	.	8a	-ca
4f	si	.	.	4a	si
4g	fe-	.	.	4g	fe-
4d	-rir	.	.	4f#X	-rir
4f	di	.	.	4a	di
=19	=19	=19	=19	=19	=19
4c	ba-	0r	.	4.g	ba-
4G	-cio ar-	.	.	.	.
.	.	.	.	8fnXi	-cio ar-
1.A	-den-	.	.	4e	.
.	.	.	.	4a	.
.	.	.	.	1a	-den-
=20	=20	=20	=20	=20	=20
2d	-te,	1r	.	4f#X	-te,
.	.	.	.	4b-y	La
2r	.	.	.	4.a	boc-
.	.	.	.	8g	-ca
1r	.	4r	.	4g	si
.	.	4d	La	4fnXi	fe-
.	.	4.d	boc-	2e	-rir
.	.	8c	-ca	.	.
=21	=21	=21	=21	=21	=21
2r	.	4c	si	4d	di
.	.	4B-y	fe-	2d	ba-
4r	.	4A	-rir	.	.
4e	di	4d	di	4c	-cio ar-
4c	ba-	4.d	ba-	1A	-den-
4d	-cio ar-	.	.	.	.
.	.	8d	-cio ar-	.	.
2e	-den-	2d	-den-	.	.
=22	=22	=22	=22	=22	=22
0d	-te.	0d	-te.	0A	-te.
=23||	=23||	=23||	=23||	=23||	=23||
!LO:TX:a:t=Seconda parte.	!	!	!	!	!
4r	.	1r	.	4r	.
4d	So-	.	.	4a	So-
4d	-nar	.	.	4a	-nar
4BnX	le	.	.	4g	le
2c	la-	2r	.	2g	la-
2d	-bra	4r	.	2f#X	-bra
.	.	4d	So-	.	.
=24	=24	=24	=24	=24	=24
1r	.	4d	-nar	1r	.
.	.	4c	le	.	.
.	.	2c	la-	.	.
2r	.	2BnX	-bra	2r	.
4r	.	2r	.	4r	.
4d	e	.	.	4fnXi	e
=25	=25	=25	=25	=25	=25
4.d	vi	1r	.	4.f	vi
8e	re-	.	.	8g	re-
4f	-sta-	.	.	4a	-sta-
4d	-ro i	.	.	4f	-ro i
2A	se-	2r	.	2e	se-
2d	-gni,	4r	.	2d	-gni
.	.	4B-i	e	.	.
=26	=26	=26	=26	=26	=26
4r	.	4.c	vi	1r	.
4B-y	<e	.	.	.	.
.	.	8d	re-	.	.
4.B-y	vi	4e-y	-sta-	.	.
.	.	4c	-ro i	.	.
8c	re-	.	.	.	.
4d	-sta-	8BnXiL	se-	2r	.
.	.	8GJ	.	.	.
4B-y	-ro i	2c	.	.	.
2A	se-	.	.	4r	.
.	.	4Bni	.	4a	Di
=27	=27	=27	=27	=27	=27
4G	-gni>	2c	-gni	2b-y	col-
4d	Di	.	.	.	.
2e-X	col-	2r	.	2g	-pi im-
2d	-pi im-	1r	.	1f	-pres-
2c	-pres-	.	.	.	.
=28	=28	=28	=28	=28	=28
4B-y	-si.	4r	.	4f	-si.
4d	A-	4B-y	A-	4B-y	A-
2e-X	-mor,	2c	-mor,	2b-y	-mor,
4r	.	4.B-y	deh,	4r	.
4.d	deh,	.	.	4.b-y	deh,
.	.	8B-y	per-	.	.
.	.	2B-y	-ch'a	.	.
8c	per-	.	.	8a	per-
4c	-ch'a	.	.	4a	-ch'a
=29	=29	=29	=29	=29	=29
2B-y	vo-	2G	vo-	2g	vo-
4A	-to,	2G	-to	4f#X	-to,
4.B-y	<deh	.	.	4.b-y	deh
.	.	1r	.	.	.
8F	per-	.	.	8a	per-
4F	-ch'a	.	.	4a	-ch'a
2G	vo-	.	.	2g	vo-
=30	=30	=30	=30	=30	=30
4d	-to>	0r	.	4f#X	-to
4d	Tan-	.	.	4a	Tan-
4.c	-t'ar-	.	.	4.cc	-t'ar-
8A	-me e	.	.	8cc	-me e
4B-y	tai	.	.	4b-y	tai
4c	per-	.	.	4g	per-
4F	-cos-	.	.	4a	-cos-
4B-y	-se u-	.	.	4b-y	-se u-
=31	=31	=31	=31	=31	=31
4c	-sar	1r	.	4g	-sar
4c	da	.	.	4g	da
2d	scher-	.	.	2f#X	scher-
4G	-zo,	4r	.	2g	-zo?
4d	<Tan-	4c	Tan-	.	.
4.e	-t'ar-	4.d	-t'ar-	2r	.
8f	-me e	8d	-me e	.	.
=32	=32	=32	=32	=32	=32
4d	tai	4c	tai	0r	.
4c	per-	4A	per-	.	.
4A	-cos-	4d	-cos-	.	.
4a	-se u-	4B-y	-se u-	.	.
4.g	-sar	4A	-sar	.	.
.	.	2G	da	.	.
8f	da	.	.	.	.
2e	scher-	.	.	.	.
.	.	4F#X	scher-	.	.
=33	=33	=33	=33	=33	=33
2d	-zo?>	2G	-zo?	2r	.
2r	.	2r	.	4g	Pro-
.	.	.	.	8gL	-vin-
.	.	.	.	8aJ	-si in
1r	.	1r	.	4g	ve-
.	.	.	.	4g	-ra
.	.	.	.	4.c	pu-
.	.	.	.	8d	-gna, e
=34	=34	=34	=34	=34	=34
0r	.	0r	.	4f	non
.	.	.	.	4g	si
.	.	.	.	2d	sde-
.	.	.	.	2d	-gni
.	.	.	.	4r	.
.	.	.	.	[4g	Scon-
=35	=35	=35	=35	=35	=35
1r	.	1r	.	8gL]	.
.	.	.	.	8gJ	-tro
.	.	.	.	4e-X	d'a-
.	.	.	.	2f	-man-
4r	.	2r	.	2B-y	-te.
4d	A-	.	.	.	.
2d	-mor,	4r	.	2r	.
.	.	4B-y	A-	.	.
=36	=36	=36	=36	=36	=36
4r	.	2B-y	-mor,	0r	.
4A	me,	.	.	.	.
2.B-y	tuo	2r	.	.	.
.	.	4r	.	.	.
4A	de-	4d	me,	.	.
2G	-vo-	4e-y	tuo	.	.
.	.	[4c	de-	.	.
=37	=37	=37	=37	=37	=37
2d	-to,	4c]	.	4r	.
.	.	4BnX	-vo-	4a	A-
2r	.	4c	-to,	2b-y	-mor,
.	.	4C	A-	.	.
1r	.	2.G	-mor,	4f	me,
.	.	.	.	2g	tuo
.	.	4G	me,	4f	de-
=38	=38	=38	=38	=38	=38
1r	.	4F	tuo	2e-X	-vo-
.	.	2c	de-	.	.
.	.	.	.	2d	-to,
.	.	4BnX	-vo-	.	.
4r	.	2c	-to	1r	.
4g	Op-	.	.	.	.
4f	-po-	2r	.	.	.
4d	-ni a	.	.	.	.
=39	=39	=39	=39	=39	=39
2e-X	l'u-	1r	.	4r	.
.	.	.	.	4g	Op-
4d	-na,	.	.	4b-y	-po-
4f	<Op	.	.	4a	-ni a
4e-i	po-	2r	.	4.cc	l'u-
4c	-ni a	.	.	.	.
.	.	.	.	8b-y	.
4d	l'u-	4r	.	4a	.
4d	-na,>	4g	o	4b-y	-na, o
=40	=40	=40	=40	=40	=40
2r	.	4.f	fra	4.g	fra
.	.	8f	le	8g	le
4r	.	4d	due	4f#X	due
4G	o	4e-y	fa	4g	fa
4.c	fra	2.d	ter-	2e	ter-
8c	le	.	.	.	.
2d	due	.	.	2d	-zo,
.	.	8e-yL	.	.	.
.	.	8fJ	.	.	.
=41	=41	=41	=41	=41	=41
2G	fa	1g	.	0r	.
2d	ter-	.	.	.	.
4G	-zo,	2enX	-zo,	.	.
4g	Op-	.	.	.	.
4f	-po-	2r	.	.	.
4d	-ni a	.	.	.	.
=42	=42	=42	=42	=42	=42
2e-X	l'u-	4r	.	1r	.
.	.	4c	Op-	.	.
4d	-na,	4e-i	-po-	.	.
4f	<Op-	4d	-ni a	.	.
4e-i	-po-	4.f	l'u-	2r	.
4c	-ni a	.	.	.	.
.	.	8e-y	.	.	.
4d	l'u-	4d	.	4r	.
4d	-na,>	4e-y	-na o	4dd	o
=43	=43	=43	=43	=43	=43
2r	.	4.c	fra	4.cc	fra
.	.	8c	le	8cc	le
4r	.	4BnX	due	4a	due
4G	o	4c	fa	4b-y	fa
4.c	fra	2A	ter-	2a	ter-
8c	le	.	.	.	.
2d	due	4G	-zo,	2a	-zo,
.	.	4D	fa	.	.
=44	=44	=44	=44	=44	=44
2G	fa	4.EnX	ter-	4r	.
.	.	.	.	4d	fa
.	.	8F	.	.	.
2A	ter-	2G	.	2a	ter-
1Gl	-zo.	1Gl	-zo.	1bnXl	-zo.
==	==	==	==	==	==
*-	*-	*-	*-	*-	*-
!!!system-decoration: [(s1,s2,s3)]
!!!RDF**kern: i = editorial accidental
!!!RDF**kern: l = terminal long
!!!ENC: Emiliano Ricciardi
!!!END: 2018
!!!EED: Ricciardi, Emiliano
!!!EEV: 2018/10/28
!!!YEC: Copyright 2018 Emiliano Ricciardi, All Rights Reserved
!!!ONB: Translated from MusicXML on 2018/10/28 and edited by Craig Stuart Sapp
